symbolic/16x16/panel/lookit-panel.svg

<svg xmlns="http://www.w3.org/2000/svg" width="16" height="16" version="1.1">
 <defs>
  <style id="current-color-scheme" type="text/css">
   .ColorScheme-Text { color:#323a41; } .ColorScheme-Highlight { color:#4285f4; } .ColorScheme-NeutralText { color:#ff9800; } .ColorScheme-PositiveText { color:#4caf50; } .ColorScheme-NegativeText { color:#f44336; }
  </style>
 </defs>
 <path style="fill:currentColor" class="ColorScheme-Text" d="M 8 1 A 7 7 0 0 0 1 8 A 7 7 0 0 0 4.03125 13.755859 C 4.1045819 13.2038 4.4013283 12.686721 4.8125 12.388672 C 4.9489759 12.289744 5.0945037 12.223247 5.2421875 12.167969 A 5 5 0 0 1 3 8 A 5 5 0 0 1 8 3 A 5 5 0 0 1 13 8 A 5 5 0 0 1 12.863281 9.140625 C 12.993589 9.2711905 13.13035 9.3993618 13.232422 9.5410156 C 13.650508 10.121231 13.687278 10.65576 13.789062 11.193359 C 13.920767 11.217646 14.051766 11.245168 14.183594 11.269531 A 7 7 0 0 0 15 8 A 7 7 0 0 0 8 1 z M 8 4 A 4 4 0 0 0 4 8 A 4 4 0 0 0 6.1835938 11.5625 C 6.2184069 11.220725 6.2790751 10.872437 6.3828125 10.523438 A 3 3 0 0 1 5 8 A 3 3 0 0 1 8 5 A 3 3 0 0 1 11 8 A 3 3 0 0 1 10.994141 8.1113281 C 11.348918 8.1918744 11.675743 8.312267 11.96875 8.4648438 A 4 4 0 0 0 12 8 A 4 4 0 0 0 8 4 z M 10 9 C 7.5568513 9 7.0663331 10.973787 7.0175781 12.501953 C 7.0175669 12.676323 7.0343343 12.849755 7.0664062 13.021484 C 6.9064762 12.961274 6.5354959 12.930058 6.3632812 12.929688 C 5.6101655 12.92969 5 13.290122 5 14 C 5 14.709878 5.6101656 15 6.3632812 15 L 6.8183594 15 L 13.181641 15 C 14.185795 15 15 14.446503 15 13.5 C 15 12.553497 14.185795 12 13.181641 12 C 13.169821 11.999891 13.058695 11.999891 13.046875 12 C 13.000875 11 12.443149 9 10 9 z"/>
</svg>

<svg xmlns="http://www.w3.org/2000/svg" width="16" height="16"><defs><style id="current-color-scheme" type="text/css"></style></defs><path style="fill:currentColor;color:#323a41" d="M8 1a7 7 0 0 0-7 7 7 7 0 0 0 3.031 5.756c.074-.552.37-1.07.782-1.367.136-.1.282-.166.43-.221A5 5 0 0 1 3 8a5 5 0 0 1 5-5 5 5 0 0 1 5 5 5 5 0 0 1-.137 1.14c.13.131.267.26.37.401.418.58.454 1.115.556 1.652l.395.077A7 7 0 0 0 15 8a7 7 0 0 0-7-7zm0 3a4 4 0 0 0-4 4 4 4 0 0 0 2.184 3.563c.034-.342.095-.69.199-1.04A3 3 0 0 1 5 8a3 3 0 0 1 3-3 3 3 0 0 1 3 3 3 3 0 0 1-.006.111c.355.08.682.201.975.354A4 4 0 0 0 12 8a4 4 0 0 0-4-4zm2 5c-2.443 0-2.934 1.974-2.982 3.502 0 .174.016.348.048.52-.16-.06-.53-.092-.703-.092C5.61 12.93 5 13.29 5 14c0 .71.61 1 1.363 1h6.819C14.186 15 15 14.447 15 13.5s-.814-1.5-1.818-1.5h-.135C13 11 12.443 9 10 9z"/></svg>
